svg/fluentui-system-icons/ic_fluent_document_database_20_filled.svg

<svg width="20" height="20" viewBox="0 0 20 20" fill="none" xmlns="http://www.w3.org/2000/svg">
<path d="M10 2V6.5C10 7.32843 10.6716 8 11.5 8H16V16.5C16 17.3284 15.3284 18 14.5 18H10.5001C10.8056 17.5745 11 17.0731 11 16.4994C11 15.5956 11.0008 13.7321 11.0013 12.5531L11.0023 10.3056L10.9932 10.3138C10.8893 8.89298 9.60411 7.95056 8.34832 7.48361C7.94524 7.33373 7.51068 7.21661 7.05518 7.13521C6.5612 7.04694 6.03881 7 5.5 7C4.98471 7 4.48075 7.04303 4 7.12557V3.5C4 2.67157 4.67157 2 5.5 2H10ZM11 2.25V6.5C11 6.77614 11.2239 7 11.5 7H15.75L11 2.25ZM6.87926 8.11962C7.28025 8.19127 7.6567 8.29333 7.9998 8.42091C9.2059 8.86938 10 9.63317 10 10.5C10 11.8807 7.98528 13 5.5 13C3.01472 13 1 11.8807 1 10.5C1 9.11929 3.01472 8 5.5 8C5.98112 8 6.44461 8.04195 6.87926 8.11962ZM5.5 14C6.87987 14 8.17853 13.6914 9.16762 13.1419C9.46054 12.9792 9.74611 12.7824 10.0013 12.5526C10.0008 13.7315 10 15.5953 10 16.4994C10 17.8802 7.98528 18.9994 5.5 18.9994C3.01472 18.9994 1 17.8802 1 16.4994V12.5538C1.25486 12.7831 1.53996 12.9794 1.83238 13.1419C2.82147 13.6914 4.12013 14 5.5 14Z" fill="#212121"/>
</svg>

<svg xmlns="http://www.w3.org/2000/svg" width="20" height="20"><path d="M10 2v4.5A1.5 1.5 0 0 0 11.5 8H16v8.5a1.5 1.5 0 0 1-1.5 1.5h-4c.306-.425.5-.927.5-1.5l.001-3.947.001-2.247-.009.008c-.104-1.421-1.389-2.363-2.645-2.83a7.508 7.508 0 0 0-1.293-.349A8.86 8.86 0 0 0 5.5 7c-.515 0-1.02.043-1.5.126V3.5A1.5 1.5 0 0 1 5.5 2H10Zm1 .25V6.5a.5.5 0 0 0 .5.5h4.25L11 2.25ZM6.88 8.12c.4.071.777.173 1.12.3 1.206.45 2 1.213 2 2.08 0 1.38-2.015 2.5-4.5 2.5S1 11.88 1 10.5 3.015 8 5.5 8c.481 0 .945.042 1.38.12ZM5.5 14c1.38 0 2.679-.309 3.668-.858.293-.163.578-.36.833-.59L10 16.5c0 1.38-2.015 2.5-4.5 2.5S1 17.88 1 16.5v-3.945c.255.23.54.425.832.588.99.55 2.288.858 3.668.858Z"/></svg>
